X:49
T:Lady Coventry's Delight. JJo8.049
%%VWML:JohnsonVol8-2184-p25-0
F:http://www.vwml.org/record/JohnsonVol8/2184/p25
Z:Transcribed by Simon Furey and Lewis Jones
Z:vmp.Simon Wilson 2013 www.village-music-project.org.uk
Z:Dance added by John Chambers 2017
M:6/8
L:1/8
%Q:3/8=120
K:G
|:\
B2c | dBG gec | d2BA2B | cBA edc | c2BB2c |\
dBG gec | d2Bb2g | fedA2^c | d3 :|
|:\
d2e | =fed dcB | c2Ac2d | edc cBA | B2GB2c |\
dBG gec | dBG (e/f/g)e | dBG (A/B/c)A | G3 :|
W: Foot it and Right and Left half
W:round .| the same again :| turn
W:Right hands and cast off .| Right
W:and Left at top :|
W:
T:Intrepid. JJo8.050, The
B:J.Johnson Choice Collection Vol 8 1758
Z:vmp.Simon Wilson 2013 www.village-music-project.org.uk
Z:Dance added by John Chambers 2017
T:The Lass and the Money is All My Own,aka.  JJo8.050
M:6/8
L:1/8
%Q:3/8=120
K:A
|: f |\
ecA ABc | d2cB2A | ecA ABA | B2cd2f |\
ecA ABc | d2cB2A | (c/d/e)c (B/c/d)B | A2AA2 :|
|: e |\
fdf ece | fdf ece | fga ecA | B2cd2f |\
efg agf | edcB2A | (c/d/e)c (B/c/d)B | A2AA2 :|
W: Foot to your Partner and turn .|
W:Cast off and turn your Partner :|
W:Hands round at top .|. and whole
W:figure thro' at top .|
W:
